build/img/svg/instagram.svg

<svg width="30" height="30" viewBox="0 0 30 30" fill="none" xmlns="http://www.w3.org/2000/svg">
<path d="M15 2.70117C19.0078 2.70117 19.4824 2.71875 21.0586 2.78906C22.5234 2.85352 23.3145 3.09961 23.8418 3.30469C24.5391 3.57422 25.043 3.90234 25.5645 4.42383C26.0918 4.95117 26.4141 5.44922 26.6836 6.14648C26.8887 6.67383 27.1348 7.4707 27.1992 8.92969C27.2695 10.5117 27.2871 10.9863 27.2871 14.9883C27.2871 18.9961 27.2695 19.4707 27.1992 21.0469C27.1348 22.5117 26.8887 23.3027 26.6836 23.8301C26.4141 24.5273 26.0859 25.0313 25.5645 25.5527C25.0371 26.0801 24.5391 26.4023 23.8418 26.6719C23.3145 26.877 22.5176 27.123 21.0586 27.1875C19.4766 27.2578 19.002 27.2754 15 27.2754C10.9922 27.2754 10.5176 27.2578 8.94141 27.1875C7.47656 27.123 6.68555 26.877 6.1582 26.6719C5.46094 26.4023 4.95703 26.0742 4.43555 25.5527C3.9082 25.0254 3.58594 24.5273 3.31641 23.8301C3.11133 23.3027 2.86523 22.5059 2.80078 21.0469C2.73047 19.4648 2.71289 18.9902 2.71289 14.9883C2.71289 10.9805 2.73047 10.5059 2.80078 8.92969C2.86523 7.46484 3.11133 6.67383 3.31641 6.14648C3.58594 5.44922 3.91406 4.94531 4.43555 4.42383C4.96289 3.89648 5.46094 3.57422 6.1582 3.30469C6.68555 3.09961 7.48242 2.85352 8.94141 2.78906C10.5176 2.71875 10.9922 2.70117 15 2.70117ZM15 0C10.9277 0 10.418 0.0175781 8.81836 0.0878906C7.22461 0.158203 6.12891 0.416016 5.17969 0.785156C4.18945 1.17187 3.35156 1.68164 2.51953 2.51953C1.68164 3.35156 1.17188 4.18945 0.785156 5.17383C0.416016 6.12891 0.158203 7.21875 0.0878906 8.8125C0.0175781 10.418 0 10.9277 0 15C0 19.0723 0.0175781 19.582 0.0878906 21.1816C0.158203 22.7754 0.416016 23.8711 0.785156 24.8203C1.17188 25.8105 1.68164 26.6484 2.51953 27.4805C3.35156 28.3125 4.18945 28.8281 5.17383 29.209C6.12891 29.5781 7.21875 29.8359 8.8125 29.9062C10.4121 29.9766 10.9219 29.9941 14.9941 29.9941C19.0664 29.9941 19.5762 29.9766 21.1758 29.9062C22.7695 29.8359 23.8652 29.5781 24.8145 29.209C25.7988 28.8281 26.6367 28.3125 27.4688 27.4805C28.3008 26.6484 28.8164 25.8105 29.1973 24.8262C29.5664 23.8711 29.8242 22.7813 29.8945 21.1875C29.9648 19.5879 29.9824 19.0781 29.9824 15.0059C29.9824 10.9336 29.9648 10.4238 29.8945 8.82422C29.8242 7.23047 29.5664 6.13477 29.1973 5.18555C28.8281 4.18945 28.3184 3.35156 27.4805 2.51953C26.6484 1.6875 25.8105 1.17188 24.8262 0.791016C23.8711 0.421875 22.7813 0.164062 21.1875 0.09375C19.582 0.0175781 19.0723 0 15 0Z" fill="white" fill-opacity="0.7"/>
<path d="M15 7.29492C10.7461 7.29492 7.29492 10.7461 7.29492 15C7.29492 19.2539 10.7461 22.7051 15 22.7051C19.2539 22.7051 22.7051 19.2539 22.7051 15C22.7051 10.7461 19.2539 7.29492 15 7.29492ZM15 19.998C12.2402 19.998 10.002 17.7598 10.002 15C10.002 12.2402 12.2402 10.002 15 10.002C17.7598 10.002 19.998 12.2402 19.998 15C19.998 17.7598 17.7598 19.998 15 19.998Z" fill="white" fill-opacity="0.7"/>
<path d="M24.8086 6.99024C24.8086 7.98633 24 8.78907 23.0098 8.78907C22.0137 8.78907 21.2109 7.98047 21.2109 6.99024C21.2109 5.99414 22.0195 5.19141 23.0098 5.19141C24 5.19141 24.8086 6 24.8086 6.99024Z" fill="white" fill-opacity="0.7"/>
</svg>

<svg width="30" height="30" fill="none" xmlns="http://www.w3.org/2000/svg"><path d="M15 2.701c4.008 0 4.482.018 6.059.088 1.464.065 2.255.31 2.783.516.697.27 1.201.597 1.723 1.119.527.527.85 1.025 1.119 1.722.205.528.45 1.325.515 2.784.07 1.582.088 2.056.088 6.058 0 4.008-.017 4.483-.088 6.059-.064 1.465-.31 2.256-.515 2.783a4.639 4.639 0 01-1.12 1.723 4.614 4.614 0 01-1.722 1.119c-.527.205-1.324.451-2.783.515-1.582.07-2.057.088-6.059.088-4.008 0-4.482-.017-6.059-.087-1.464-.065-2.255-.311-2.783-.516a4.64 4.64 0 01-1.722-1.12 4.614 4.614 0 01-1.12-1.722c-.205-.527-.45-1.324-.515-2.783-.07-1.582-.088-2.057-.088-6.059 0-4.008.017-4.482.088-6.058.064-1.465.31-2.256.515-2.784a4.639 4.639 0 011.12-1.722 4.614 4.614 0 011.722-1.12c.528-.204 1.324-.45 2.783-.515 1.577-.07 2.051-.088 6.059-.088zM15 0c-4.072 0-4.582.018-6.182.088-1.593.07-2.69.328-3.638.697A7.321 7.321 0 002.52 2.52 7.35 7.35 0 00.785 5.174C.416 6.129.158 7.219.088 8.812.018 10.418 0 10.928 0 15c0 4.072.018 4.582.088 6.182.07 1.593.328 2.69.697 3.638.387.99.897 1.828 1.735 2.66a7.333 7.333 0 002.654 1.729c.955.37 2.045.627 3.638.697 1.6.07 2.11.088 6.182.088 4.072 0 4.582-.017 6.182-.088 1.594-.07 2.69-.328 3.639-.697a7.334 7.334 0 002.654-1.729 7.334 7.334 0 001.728-2.654c.37-.955.627-2.045.698-3.639.07-1.6.087-2.109.087-6.181s-.017-4.582-.087-6.182c-.07-1.594-.329-2.69-.698-3.638a7.026 7.026 0 00-1.716-2.666A7.333 7.333 0 0024.825.79C23.87.42 22.78.163 21.186.093 19.582.018 19.072 0 15 0z" fill="#fff" fill-opacity=".7"/><path d="M15 7.295A7.707 7.707 0 007.295 15 7.707 7.707 0 0015 22.705 7.707 7.707 0 0022.705 15 7.707 7.707 0 0015 7.295zm0 12.703a4.999 4.999 0 11.001-9.997A4.999 4.999 0 0115 19.998zM24.809 6.99a1.8 1.8 0 11-3.599 0 1.8 1.8 0 013.599 0z" fill="#fff" fill-opacity=".7"/></svg>
